**kern
*staff1
*head1[head1a]
*solo1[solo1a]
*solo2[solo2a]
=1-
*clefG2
*k[]
C:
*M4/4
{4g/
8e/L
8f/J
8g/L
8a/
8b/
[8cc/J
=2
8cc/L]
[8g/
8g/]
8a/J
8b/L
8a/
8e/
8f/J
=3
8g/L
8a/
8g/
8e/J
8f/L
8g/
8e/
8d/J}
=4
2r
8r
{[8cc\L
8cc\]
8a\J
=5
4cc\
8r
8e/
8f/L
8g/
8f/
8e/J
=6
8e-/L
8g/
8a/
[8b/J
4.b\]
8a/
=7
4g/}
8r
[8a-/
8a-\L]
[8ee\
8ee\]
8dd\J
=8
8b/L
8g/
8e/
[8b-/J
4.b-\]
8a-/
=9
4a/
8r
8cc\
8ee\L
8dd\
8cc\
8a\J
=10
8a-/L
8f/
8g/
[8f/J
4.f/]
8g/
=11
4e/
8r
8g/
4f/}
8r
*>solo1a
{8a/
=12
8g/L
16d/L
16c/J
8B/
8c/J
8d/L
8c/
8B/
8c/J
=13
8e/L
[8g/J
4g/]}
2r
=14||
{8cc\L
16dd\L
16cc\J
8b\
8cc\J
8dd/L
8cc/
8a/
[8g/J
=15
8g/L]
8f/
8e/
8c/J
8c#/L
8d/
8B-/
8G/J
=16
8c/L
8A/J
16B-/LL
16d/
16f/
16a/JJ
8cc/
8a-/
8e/
8c/J
=17
8g/L
8f/
8c/
8d/J
8e-/L
8c/J
4d/}
=18
2r
4r
8r
{16e/LL
16d/JJ
=19
8B/L
8c/
8d/
8B/J
8c/L
8d/
8e/
8f/J
=20
8g/L
8f/
8e/
8d/J
8d-/L
8b-/
8a/
8e/J
=21
8g/L
8f/J
12c/L
12A/
12F/J
8e/L
[8d/J
4d/]}
=22
4r
{16b-/LL
16a-/JJ
24e-/LL
24c/
24A-/JJ
8g/L
[8f/J
4f/]}
=23
2r
{12f/L
12g/
12g/J}
4r
=24
2r
8r
*>solo2a
{8c/L
8f#/
8g/J
=25
4cc\
8cc\L
16dd\L
16cc\JJ
8b\L
8cc\
8dd\
[8cc\J
=26||
4cc\]}
8r
{8g/
8b/L
8b-/
8a/
8a-/J
=27
8g/L
8B/
8c/
8f/J
8d/L
8d#/
8e/
8c/J
=28
8c#/L
8d/
8B-/
8G/J
8c#/L
8B-/
8A/
8g/J
=29
8f/L
8c/
8d/
[8e-/J
4e-/]}
4r
=30
2r
4r
8r
{8c/
=31
24g/LL
24a-/
24g/JJ
8f/L
8e/
8f/J
8g/L
8f/
8e/
8d/J
=32
8d-/L
8e/
8g/
8a/J
8b-\L
16cc\L
16b-\J
8a\
8e\J
=33
8g/L
8f/J
12c/L
12A/
12F/J
[2e/
=34
4e/]
8d/L
8c/J
8B/L
8d/
8A-/
8G-/J
=35
8G/L
8f/
8d/
8e-/J
8en/L
[8c/J
4c/]}
=36
2r
2r
=37
4r
{8g/L
8a/J
8cc\L
8ee-\
8dd\
[8cc\J
=38||
8cc\L]
[8b-\
8b-\]
16cc\L
16b-\JJ
8g/L
8a/
8g/
8f/J
=39
4e/
8f/L
8f#/J
8g/L
8fn/
8e/
8c/J
=40
8d/L
8c/J
24a/LL
24b-/
24a/JJ
8f#/
8d/L
8B-/
8Bn/
8c#/J
=41
8c/L
8B-/J
16A/LL
16c/
16e/
16g/JJ
8f/L
8c/
8d/
[8e-/J
=42
4e-/]}
4r
2r
=43
8r
{8f#/
12g\L
12cc\
12ee\J
8gg\L
8ff\
8ee\
8dd\J
=44
8dd-/L
8e/
8g/
8a/J
8b-\L
16cc\L
16b-\J
8a\
8e\J
=45
8g/L
[8f/J
4f/]}
4r
8r
{24ee\LL
24dd\
24cc\JJ
=46
8a/L
8f/
8d/
8A/J
8c/L
8B/J
4r
=47
8r
16g/LL
16f/J
8e/
8c/J
4r
8r
16d/LL
16c/JJ
=48
8B/L
8d/J
4f/
8r
8a-/
24g/LL
24a-/
24g/JJ
8f/
=49
4e/
2g/}
4r
==
*-
